;FLAVOR:UltiGCode
;TIME:5740
;MATERIAL:20174
;MATERIAL2:0
;NOZZLE_DIAMETER:0.4
;MINX:-54.147
;MINY:-57.211
;MINZ:0.36
;MAXX:64.427
;MAXY:55.267
;MAXZ:24.36
;TARGET_MACHINE.NAME:Unknown
;POSTPROCESSED
;  [FilamentChange]
;Generated with Cura_SteamEngine 5.8.1
M82 ;absolute extrusion mode
G28 ;Home
G1 Z15.0 F6000 ;Move the platform down 15mm
;Prime the extruder
G92 E0
G1 F200 E3
G92 E0
G92 E0
G92 E0
G10
;LAYER_COUNT:76
;LAYER:-5
M107
G0 F7200 X-25.763 Y8.472 Z0.36
;TYPE:SUPPORT-INTERFACE
G11
G1 F1350 X-26.033 Y7.851 E0.19502
G1 X-26.379 Y7.26 E0.39225
G1 X-26.789 Y6.727 E0.58592
G1 X-27.269 Y6.244 E0.78203
G1 X-27.813 Y5.823 E0.98014
G1 X-28.399 Y5.477 E1.17613
G1 X-28.987 Y5.219 E1.36106
G1 X-29.201 Y5.139 E1.42686
G1 X-30.18 Y4.73 E1.73243
G1 X-30.439 Y4.607 E1.815
G1 X-31.098 Y4.342 E2.01956
G1 X-32.147 Y3.993 E2.33796
G1 X-33.223 Y3.541 E2.67408
G1 X-34.195 Y3.042 E2.98875
G1 X-34.739 Y2.782 E3.16239
G1 X-35.48 Y2.536 E3.38725
G1 X-36.143 Y2.414 E3.5814
G1 X-37.287 Y2.329 E3.91178
G1 X-38.158 Y2.217 E4.1647
G1 X-39.225 Y2.002 E4.47817
G1 X-39.992 Y1.798 E4.70675
G1 X-41.719 Y1.294 E5.22487
G1 X-42.809 Y0.925 E5.55629
G1 X-43.788 Y0.512 E5.8623
G1 X-44.592 Y0.108 E6.12145
G1 X-45.491 Y-.421 E6.42186
G1 X-46.453 Y-1.091 E6.75949
G1 X-47.327 Y-1.813 E7.08598
G1 X-47.945 Y-2.395 E7.33046
G1 X-49.379 Y-3.829 E7.91452
G1 X-50.139 Y-4.656 E8.238
G1 X-50.806 Y-5.498 E8.54736
G1 X-51.357 Y-6.298 E8.82712
G1 X-51.93 Y-7.296 E9.15855
G1 X-52.366 Y-8.184 E9.44346
G1 X-52.728 Y-9.079 E9.7215
G1 X-53.066 Y-10.092 E10.02906
G1 X-53.561 Y-11.789 E10.53816
G1 X-53.804 Y-12.764 E10.82755
G1 X-54.019 Y-13.955 E11.1761
G1 X-54.124 Y-15.056 E11.49463
G1 X-54.147 Y-16.119 E11.80085
G1 X-54.108 Y-17.001 E12.05511
G1 X-53.988 Y-18.111 E12.37665
G1 X-53.753 Y-19.29 E12.72288
G1 X-53.57 Y-20.001 E12.93433
G1 X-53.062 Y-21.735 E13.45471
G1 X-52.669 Y-22.895 E13.80744
G1 X-52.418 Y-23.503 E13.99688
G1 X-52.194 Y-24.156 E14.1957
G1 X-52.059 Y-24.818 E14.39028
G1 X-52.008 Y-25.488 E14.5838
G1 X-52.036 Y-26.147 E14.77376
G1 X-52.307 Y-27.733 E15.23715
G1 X-52.408 Y-28.836 E15.55614
G1 X-52.435 Y-29.899 E15.86238
G1 X-52.392 Y-30.797 E16.1213
G1 X-52.276 Y-31.892 E16.43843
G1 X-52.081 Y-32.9 E16.73412
G1 X-51.854 Y-33.794 E16.99976
G1 X-51.246 Y-35.86 E17.62
G1 X-50.932 Y-36.804 E17.90651
G1 X-50.539 Y-37.759 E18.20393
G1 X-50.059 Y-38.733 E18.51666
G1 X-49.48 Y-39.714 E18.84473
G1 X-48.859 Y-40.59 E19.15398
G1 X-47.877 Y-41.753 E19.59235
G1 X-46.326 Y-43.395 E20.24286
G1 X-45.447 Y-44.255 E20.59702
G1 X-44.788 Y-44.809 E20.84497
G1 X-43.841 Y-45.51 E21.1843
G1 X-43.363 Y-45.879 E21.35821
G1 X-42.92 Y-46.321 E21.53844
G1 X-42.433 Y-46.932 E21.76346
G1 X-41.591 Y-48.362 E22.24139
G1 X-40.976 Y-49.233 E22.54847
G1 X-39.894 Y-50.496 E23.02744
G1 X-38.371 Y-52.106 E23.66571
G1 X-37.588 Y-52.862 E23.97917
G1 X-36.765 Y-53.548 E24.28774
G1 X-36.047 Y-54.072 E24.54373
G1 X-35.158 Y-54.633 E24.84648
G1 X-34.216 Y-55.136 E25.15403
G1 X-33.147 Y-55.61 E25.49081
G1 X-31.674 Y-56.101 E25.93798
G1 X-29.675 Y-56.66 E26.53578
G1 X-28.505 Y-56.939 E26.88219
G1 X-27.574 Y-57.09 E27.15382
G1 X-26.382 Y-57.196 E27.49847
G1 X-25.499 Y-57.211 E27.75281
G1 X-24.446 Y-57.161 E28.05642
G1 X-23.348 Y-57.029 E28.37492
G1 X-21.805 Y-56.687 E28.83009
G1 X-19.611 Y-56.076 E29.48601
G1 X-18.736 Y-55.799 E29.75033
G1 X-17.536 Y-55.318 E30.12266
G1 X-16.562 Y-54.835 E30.43577
G1 X-15.712 Y-54.338 E30.71935
G1 X-14.776 Y-53.683 E31.04836
G1 X-14.146 Y-53.179 E31.28072
G1 X-13.601 Y-52.795 E31.47273
G1 X-12.98 Y-52.466 E31.67512
G1 X-12.358 Y-52.23 E31.86672
G1 X-11.482 Y-52.037 E32.12506
G1 X-10.461 Y-51.909 E32.42141
G1 X-8.934 Y-51.567 E32.87208
G1 X-7.339 Y-51.124 E33.34883
G1 X-6.244 Y-50.775 E33.67982
G1 X-5.257 Y-50.378 E33.98621
G1 X-4.242 Y-49.871 E34.31297
G1 X-3.501 Y-49.444 E34.55927
G1 X-2.527 Y-48.782 E34.89844
G1 X-1.681 Y-48.103 E35.21086
G1 X-.56 Y-47.03 E35.65777
G1 X0.564 Y-45.838 E36.12962
G1 X1.178 Y-45.142 E36.39692
G1 X1.829 Y-44.287 E36.70641
G1 X1.963 Y-44.098 E36.77313
G1 X2.355 Y-43.606 E36.95431
G1 X2.868 Y-43.101 E37.16163
G1 X3.358 Y-42.714 E37.34145
G1 X4.031 Y-42.138 E37.59657
G1 X5.121 Y-41.044 E38.04134
G1 X6.005 Y-40.066 E38.42101
G1 X6.722 Y-39.2 E38.74481
G1 X7.334 Y-38.338 E39.04927
G1 X7.793 Y-37.595 E39.30079
G1 X7.927 Y-37.346 E39.38223
G1 X8.275 Y-36.773 E39.5753
G1 X8.682 Y-36.253 E39.76548
G1 X9.218 Y-35.72 E39.98318
G1 X9.729 Y-35.286 E40.17627
G1 X10.276 Y-34.913 E40.36694
G1 X11.137 Y-34.275 E40.67557
G1 X11.94 Y-33.581 E40.98123
G1 X12.685 Y-32.848 E41.28223
G1 X13.344 Y-32.099 E41.56955
G1 X13.854 Y-31.455 E41.80614
G1 X14.287 Y-30.974 E41.99253
G1 X14.828 Y-30.505 E42.19874
G1 X15.394 Y-30.132 E42.39396
G1 X16.01 Y-29.831 E42.59141
G1 X16.639 Y-29.617 E42.78276
G1 X17.39 Y-29.456 E43.00396
G1 X18.234 Y-29.393 E43.24771
G1 X19.368 Y-29.237 E43.57738
G1 X20.374 Y-29.012 E43.87427
G1 X21.499 Y-28.677 E44.21233
G1 X22.462 Y-28.308 E44.50933
G1 X23.49 Y-27.817 E44.83743
G1 X24.436 Y-27.275 E45.15143
G1 X25.317 Y-26.683 E45.45712
G1 X26.036 Y-26.127 E45.71888
G1 X26.832 Y-25.421 E46.02531
G1 X27.518 Y-24.724 E46.30696
G1 X28.912 Y-23.214 E46.89882
G1 X29.694 Y-22.291 E47.24723
G1 X30.223 Y-21.578 E47.50292
G1 X31.327 Y-19.989 E48.06016
G1 X31.822 Y-19.215 E48.32476
G1 X32.093 Y-18.747 E48.48051
G1 X32.425 Y-18.231 E48.65722
G1 X32.907 Y-17.658 E48.87287
G1 X33.411 Y-17.202 E49.06861
G1 X34.014 Y-16.78 E49.28058
G1 X34.259 Y-16.625 E49.36408
G1 X34.997 Y-16.114 E49.6226
G1 X35.75 Y-15.515 E49.89971
G1 X36.357 Y-15.097 E50.11196
G1 X37.165 Y-14.652 E50.37763
G1 X38.643 Y-13.774 E50.87273
G1 X39.244 Y-13.51 E51.06178
G1 X39.957 Y-13.303 E51.27561
G1 X40.672 Y-13.182 E51.48445
G1 X41.563 Y-13.005 E51.74608
G1 X42.283 Y-12.821 E51.9601
G1 X43.116 Y-12.584 E52.20953
G1 X44.075 Y-12.279 E52.49935
G1 X45.162 Y-11.835 E52.83751
G1 X46.131 Y-11.349 E53.14972
G1 X47.038 Y-10.807 E53.45402
G1 X47.919 Y-10.191 E53.76362
G1 X48.675 Y-9.583 E54.04302
G1 X49.68 Y-8.621 E54.44369
G1 X50.39 Y-7.876 E54.74009
G1 X51.067 Y-7.259 E55.00389
G1 X51.907 Y-6.583 E55.31442
G1 X53.02 Y-5.514 E55.75886
G1 X54.028 Y-4.45 E56.18097
G1 X54.716 Y-3.664 E56.48181
G1 X55.391 Y-2.759 E56.80697
G1 X55.964 Y-1.871 E57.11133
G1 X56.398 Y-1.079 E57.37143
G1 X56.888 Y-0.025 E57.70618
G1 X57.427 Y1.519 E58.17717
G1 X57.799 Y2.781 E58.55609
G1 X58.026 Y3.407 E58.74786
G1 X58.33 Y4.004 E58.94081
G1 X58.785 Y4.666 E59.17215
G1 X59.959 Y5.917 E59.66624
G1 X60.648 Y6.712 E59.96923
G1 X61.275 Y7.549 E60.27042
G1 X61.847 Y8.437 E60.57462
G1 X62.282 Y9.233 E60.83587
G1 X62.765 Y10.271 E61.16559
G1 X63.295 Y11.783 E61.62703
G1 X63.829 Y13.605 E62.17384
G1 X64.124 Y14.786 E62.52442
G1 X64.303 Y15.849 E62.83487
G1 X64.404 Y16.888 E63.13551
G1 X64.427 Y17.971 E63.44749
G1 X64.388 Y18.857 E63.7029
G1 X64.268 Y19.963 E64.0233
G1 X64.041 Y21.103 E64.35806
G1 X63.897 Y21.672 E64.5271
G1 X63.32 Y23.734 E65.14377
G1 X63.062 Y24.554 E65.39134
G1 X62.622 Y25.665 E65.73549
G1 X62.111 Y26.693 E66.06612
G1 X61.658 Y27.468 E66.32465
G1 X61.517 Y27.69 E66.40039
G1 X61.193 Y28.277 E66.59349
G1 X60.947 Y28.897 E66.78559
G1 X60.752 Y29.657 E67.01156
G1 X60.632 Y30.698 E67.31335
G1 X60.405 Y31.845 E67.6501
G1 X60.273 Y32.381 E67.80908
G1 X59.7 Y34.413 E68.41712
G1 X59.395 Y35.375 E68.70776
G1 X58.951 Y36.463 E69.04619
G1 X58.479 Y37.417 E69.35273
G1 X58.033 Y38.178 E69.60677
G1 X57.428 Y39.071 E69.91742
G1 X56.712 Y39.979 E70.25044
G1 X55.959 Y40.786 E70.56832
G1 X54.551 Y42.198 E71.14261
G1 X53.707 Y42.967 E71.47145
G1 X53.02 Y43.519 E71.72526
G1 X52.065 Y44.186 E72.06074
G1 X51.071 Y44.758 E72.39103
G1 X50.255 Y45.158 E72.65275
G1 X49.286 Y45.556 E72.95445
G1 X48.303 Y45.873 E73.25191
G1 X46.234 Y46.46 E73.8713
G1 X45.174 Y46.715 E74.18528
G1 X44.558 Y46.902 E74.37069
G1 X43.908 Y47.2 E74.57662
G1 X43.357 Y47.536 E74.76249
G1 X42.801 Y47.979 E74.96723
G1 X42.371 Y48.422 E75.14503
G1 X41.599 Y49.258 E75.47276
G1 X40.334 Y50.523 E75.98798
G1 X39.633 Y51.173 E76.2633
G1 X38.807 Y51.844 E76.56979
G1 X37.849 Y52.509 E76.90566
G1 X36.855 Y53.083 E77.23623
G1 X36.039 Y53.487 E77.49846
G1 X35.074 Y53.88 E77.79855
G1 X34.091 Y54.201 E78.09636
G1 X32.285 Y54.713 E78.63699
G1 X31.302 Y54.956 E78.92862
G1 X30.169 Y55.146 E79.25948
G1 X28.967 Y55.252 E79.607
G1 X27.978 Y55.267 E79.89186
G1 X26.826 Y55.197 E80.22425
G1 X25.915 Y55.081 E80.48873
G1 X24.739 Y54.835 E80.83475
G1 X24.114 Y54.663 E81.02144
G1 X22.495 Y54.19 E81.50721
G1 X21.478 Y53.853 E81.81577
G1 X20.421 Y53.404 E82.14651
G1 X19.632 Y53.008 E82.40076
G1 X18.728 Y52.474 E82.70314
G1 X17.763 Y51.805 E83.04131
G1 X16.889 Y51.079 E83.36854
G1 X16.271 Y50.5 E83.61243
G1 X14.921 Y49.147 E84.16289
G1 X14.161 Y48.32 E84.48637
G1 X13.494 Y47.478 E84.79573
G1 X12.955 Y46.693 E85.06997
G1 X12.389 Y45.723 E85.39341
G1 X11.966 Y44.855 E85.6715
G1 X11.568 Y43.888 E85.97266
G1 X11.234 Y42.884 E86.27739
G1 X10.77 Y41.294 E86.75441
G1 X10.64 Y40.784 E86.90599
G1 X10.422 Y40.115 E87.10863
G1 X10.132 Y39.493 E87.30628
G1 X9.781 Y38.947 E87.49322
G1 X9.384 Y38.459 E87.6744
G1 X9.204 Y38.263 E87.75104
G1 X8.537 Y37.436 E88.05703
G1 X7.873 Y36.479 E88.39249
G1 X7.363 Y35.617 E88.68094
G1 X6.963 Y35.033 E88.8848
G1 X6.31 Y34.206 E89.18828
G1 X5.766 Y33.417 E89.46428
G1 X5.26 Y32.546 E89.75439
G1 X4.895 Y32.01 E89.94115
G1 X4.449 Y31.498 E90.13671
G1 X3.919 Y31.027 E90.34091
G1 X3.383 Y30.66 E90.528
G1 X2.767 Y30.344 E90.72739
G1 X2.106 Y30.106 E90.92972
G1 X1.426 Y29.956 E91.13027
G1 X0.765 Y29.896 E91.32142
G1 X0.073 Y29.921 E91.52084
G1 X-.574 Y30.028 E91.70971
G1 X-1.312 Y30.248 E91.9315
G1 X-2.1 Y30.549 E92.17443
G1 X-2.789 Y30.764 E92.3823
G1 X-3.384 Y30.928 E92.56005
G1 X-4.397 Y31.167 E92.85981
G1 X-5.465 Y31.334 E93.17113
G1 X-6.501 Y31.424 E93.47062
G1 X-7.393 Y31.439 E93.72755
G1 X-8.446 Y31.389 E94.03116
G1 X-9.509 Y31.26 E94.33955
G1 X-10.677 Y31.03 E94.68239
G1 X-11.587 Y30.784 E94.95388
G1 X-12.841 Y30.361 E95.33502
G1 X-13.823 Y29.945 E95.64217
G1 X-14.61 Y29.545 E95.89642
G1 X-15.547 Y28.987 E96.21051
G1 X-17.526 Y27.629 E96.90174
G1 X-18.299 Y27.012 E97.18659
G1 X-19.131 Y26.249 E97.51171
G1 X-19.585 Y25.896 E97.67733
G1 X-20.395 Y25.223 E97.98063
G1 X-20.965 Y24.692 E98.20498
G1 X-21.342 Y24.311 E98.35935
G1 X-22.104 Y23.482 E98.68364
G1 X-22.663 Y22.788 E98.94028
G1 X-23.317 Y21.845 E99.27079
G1 X-23.894 Y20.843 E99.60379
G1 X-24.299 Y20.019 E99.86822
G1 X-24.684 Y19.08 E100.1605
G1 X-25.009 Y18.11 E100.45512
G1 X-25.176 Y17.51 E100.63449
G1 X-25.424 Y16.497 E100.93485
G1 X-25.567 Y15.687 E101.17174
G1 X-25.696 Y14.486 E101.51962
G1 X-25.719 Y13.346 E101.848
G1 X-25.677 Y12.444 E102.10806
G1 X-25.568 Y11.451 E102.39576
G1 X-25.517 Y11.203 E102.46868
G1 X-25.452 Y10.475 E102.67918
G1 X-25.473 Y9.778 E102.88001
G1 X-25.576 Y9.125 E103.0704
G1 X-25.763 Y8.472 E103.26602
G0 F7200 X-25.298 Y8.643
G1 F1350 X-3.42 Y30.522 E112.17699
G0 F7200 X-1.708 Y29.971
G1 F1350 X-52.819 Y-21.14 E132.99417
G0 F7200 X-52.258 Y-22.842
G1 F1350 X0.105 Y29.52 E154.32108
G0 F7200 X2.767 Y29.92
G1 F1350 X-51.706 Y-24.554 E176.50778
G0 F7200 X-51.75 Y-26.86
G1 F1350 X29.88 Y54.77 E209.75515
G0 F7200 X31.794 Y54.421
G1 F1350 X-52.023 Y-29.395 E243.89306
G0 F7200 X-51.911 Y-31.546
G1 F1350 X33.568 Y53.932 E278.7079
G0 F7200 X35.267 Y53.369
G1 F1350 X-51.533 Y-33.431 E314.06098
G0 F7200 X-51.027 Y-35.188
G1 F1350 X36.808 Y52.648 E349.83581
G0 F7200 X38.201 Y51.777
G1 F1350 X-50.465 Y-36.888 E385.94869
G0 F7200 X-49.756 Y-38.443
G1 F1350 X39.467 Y50.781 E422.28884
G0 F7200 X40.62 Y49.671
G1 F1350 X-48.896 Y-39.845 E458.74813
G0 F7200 X-47.897 Y-41.109
G1 F1350 X41.735 Y48.523 E495.25466
G0 F7200 X42.88 Y47.405
G1 F1350 X-46.818 Y-42.293 E531.78807
G0 F7200 X-45.705 Y-43.443
G1 F1350 X44.312 Y46.575 E568.45161
G0 F7200 X46.084 Y46.084
G1 F1350 X-44.514 Y-44.514 E605.35159
G0 F7200 X-43.221 Y-45.484
G1 F1350 X47.849 Y45.586 E642.44381
G0 F7200 X49.543 Y45.018
G1 F1350 X-42.137 Y-46.663 E679.78468
G0 F7200 X-41.293 Y-48.081
G1 F1350 X51.079 Y44.291 E717.4072
G0 F7200 X52.467 Y43.416
G1 F1350 X-40.326 Y-49.377 E755.20118
G0 F7200 X-39.266 Y-50.579
G1 F1350 X53.724 Y42.41 E793.0752
G0 F7200 X54.879 Y41.303
G1 F1350 X-38.165 Y-51.742 E830.97162
G0 F7200 X-36.995 Y-52.834
G1 F1350 X55.998 Y40.159 E868.84707
G0 F7200 X57.031 Y38.929
G1 F1350 X-35.71 Y-53.812 E906.61988
G0 F7200 X-34.282 Y-54.647
G1 F1350 X57.929 Y37.564 E944.17682
G0 F7200 X58.685 Y36.057
G1 F1350 X-32.707 Y-55.335 E981.40019
G0 F7200 X-30.987 Y-55.877
G1 F1350 X59.287 Y34.397 E1018.1682
G0 F7200 X59.786 Y32.633
G1 F1350 X-29.208 Y-56.361 E1054.41488
G0 F7200 X-27.297 Y-56.713
G1 F1350 X60.207 Y30.791 E1090.05469
G0 F7200 X60.545 Y28.866
G1 F1350 X-25.114 Y-56.792 E1124.94284
G0 F7200 X-22.487 Y-56.428
G1 F1350 X61.272 Y27.331 E1159.05734
G0 F7200 X62.074 Y25.87
G1 F1350 X-19.379 Y-55.583 E1192.23262
G0 F7200 X-14.415 Y-52.882
G1 F1350 X62.734 Y24.267 E1223.6549
G0 F7200 X63.246 Y22.516
G1 F1350 X-10.821 Y-51.55 E1253.82171
G0 F7200 X-7.862 Y-50.854
G1 F1350 X63.71 Y20.718 E1282.97252
G0 F7200 X63.993 Y18.738
G1 F1350 X15.732 Y-29.523 E1302.62891
G0 F7200 X18.576 Y-28.942
G1 F1350 X63.959 Y16.441 E1321.11311
G0 F7200 X63.424 Y13.644
G1 F1350 X21.552 Y-28.228 E1338.1673
G0 F7200 X16.175 Y-30.265
G0 X15.099 Y-30.883
G0 X6.662 Y-38.592
G1 F1350 X-4.034 Y-49.289 E1342.52392
G0 F7200 X9.529 Y-36.082
G0 X15.108 Y-30.877
G0 X38.752 Y-13.291
G1 F1350 X62.334 Y10.291 E1352.12871
G0 F7200 X57.538 Y3.232
G1 F1350 X41.765 Y-12.541 E1358.55295
G0 F7200 X45.2 Y-11.368
G1 F1350 X56.363 Y-.206 E1363.09937
G0 F7200 X6.224 Y33.377
G1 F1350 X27.696 Y54.849 E1371.84477
G0 F7200 X25.082 Y54.498
G1 F1350 X10.908 Y40.323 E1377.61796
G0 F7200 X11.879 Y43.558
G1 F1350 X21.889 Y53.568 E1381.69496
G0 F7200 X4.098 Y31.799
G0 X3.133 Y31.049
G0 X1.935 Y30.556
G0 X0.357 Y30.388
G0 X-5.301 Y30.903
G1 F1350 X-25.108 Y11.096 E1389.76223
G0 F7200 X-25.31 Y13.156
G1 F1350 X-7.43 Y31.036 E1397.04463
G0 F7200 X-9.967 Y30.762
G1 F1350 X-25.18 Y15.549 E1403.24079
G0 F7200 X-24.438 Y18.554
G1 F1350 X-13.231 Y29.761 E1407.80533
G0 F7200 X-26.774 Y7.501
G0 X-29.261 Y4.68
G1 F1350 X-53.318 Y-19.377 E1417.60359
G0 F7200 X-53.657 Y-17.454
G1 F1350 X-33.006 Y3.198 E1426.01481
G0 F7200 X-36.479 Y1.988
G1 F1350 X-53.728 Y-15.261 E1433.04022
G0 F7200 X-53.359 Y-12.63
G1 F1350 X-39.113 Y1.616 E1438.84252
G0 F7200 X-42.326 Y0.666
G1 F1350 X-52.424 Y-9.432 E1442.95537
G0 F600 X-52.424 Y-9.432 Z0.81
G0 F7200 X-41.699 Y-47.397
;TIME_ELAPSED:229.312427
;LAYER:-4
;TYPE:SUPPORT
G1 F1350 X-34.619 Y-54.477 E1446.55992
G1 X-34.788 Y-54.389 E1446.62851
G1 X-35.698 Y-53.829 E1447.01317
G1 X-36.545 Y-53.218 E1447.38915
G1 X-37.322 Y-52.566 E1447.7543
G1 X-38.084 Y-51.826 E1448.13669
G1 X-38.5 Y-50.89 E1448.50543
G1 X-38.744 Y-51.134 E1448.62966
G1 X-39.071 Y-50.789 E1448.80078
G1 X-38.988 Y-50.706 E1448.84304
G1 X-39.643 Y-50.182 E1449.14501
G1 X-40.667 Y-48.98 E1449.71346
G1 X-41.207 Y-48.212 E1450.05145
G1 X-42.006 Y-46.887 E1450.60846
G1 X-42.006 Y-46.834 E1450.62754
G1 X-42.58 Y-46.101 E1450.9627
G1 X-43.135 Y-45.55 E1451.24425
G1 X-43.67 Y-45.14 E1451.4869
G1 X-44.389 Y-44.617 E1451.80697
G1 X-44.932 Y-44.163 E1452.06178
G1 X-47.144 Y-41.951 E1453.18794
G1 X-47.514 Y-41.56 E1453.38174
G1 X-48.554 Y-40.339 E1453.95914
G1 X-49.195 Y-39.414 E1454.36428
G1 X-49.637 Y-38.677 E1454.67365
G1 X-50.144 Y-37.681 E1455.07599
G1 X-50.243 Y-37.438 E1455.17046
G1 X-32.125 Y-55.557 E1464.39489
G1 X-30.155 Y-56.112 E1465.1317
G1 X-51.01 Y-35.257 E1475.74933
G1 X-51.467 Y-33.691 E1476.33661
G1 X-51.571 Y-33.281 E1476.48888
